libs/icons/src/svg/duplicate.svg

<svg width="16" height="16" viewBox="0 0 16 16" fill="none" xmlns="http://www.w3.org/2000/svg">
<path fill-rule="evenodd" clip-rule="evenodd" d="M1.33333 0.666667C1.33333 0.298477 1.63181 0 1.99999 0H8.22216L8.22864 3.08511e-05C8.37764 0.00144816 8.51495 0.0517467 8.62531 0.135662C8.65371 0.157219 8.68051 0.181158 8.7054 0.207344L11.0433 2.66665H14C14.3682 2.66665 14.6667 2.96513 14.6667 3.33332V15.3333C14.6667 15.7015 14.3682 16 14 16H4.66666C4.29847 16 4 15.7015 4 15.3333V13.3333H1.99999C1.63181 13.3333 1.33333 13.0349 1.33333 12.6667V0.666667ZM4.67077 12C4.6694 12 4.66803 12 4.66666 12C4.66529 12 4.66392 12 4.66255 12H2.66666V1.33333H7.5555V3.93939C7.5555 4.30758 7.85397 4.60606 8.22216 4.60606H10.6667V12H4.67077ZM5.33333 13.3333V14.6667H13.3333V3.99999H12V12.6667C12 13.0349 11.7015 13.3333 11.3333 13.3333H5.33333ZM3.99999 6.66667C3.99999 6.29848 4.29847 6 4.66666 6L8.66666 6C9.03485 6 9.33333 6.29848 9.33333 6.66667C9.33333 7.03486 9.03485 7.33333 8.66666 7.33333L4.66666 7.33333C4.29847 7.33333 3.99999 7.03486 3.99999 6.66667ZM4.66666 8.66667C4.29847 8.66667 3.99999 8.96514 3.99999 9.33333C3.99999 9.70152 4.29847 10 4.66666 10L8.66666 10C9.03485 10 9.33333 9.70152 9.33333 9.33333C9.33333 8.96514 9.03485 8.66667 8.66666 8.66667L4.66666 8.66667Z" fill="#202327"/>
</svg>

<svg xmlns="http://www.w3.org/2000/svg" viewBox="0 0 16 16" class="sageicon"><path fill-rule="evenodd" d="M1.333.667C1.333.298 1.632 0 2 0h6.229a.664.664 0 0 1 .476.207l2.338 2.46H14c.368 0 .667.298.667.666v12A.667.667 0 0 1 14 16H4.667A.667.667 0 0 1 4 15.333v-2H2a.667.667 0 0 1-.667-.666v-12ZM4.671 12H2.667V1.333h4.889V3.94c0 .369.298.667.666.667h2.445V12H4.67Zm.662 1.333v1.334h8V4H12v8.667a.667.667 0 0 1-.667.666h-6ZM4 6.667C4 6.298 4.298 6 4.667 6h4a.667.667 0 0 1 0 1.333h-4A.667.667 0 0 1 4 6.667Zm.667 2a.667.667 0 1 0 0 1.333h4a.667.667 0 0 0 0-1.333h-4Z"/></svg>
